svgs/thin/file-chart-column.svg

<svg xmlns="http://www.w3.org/2000/svg" viewBox="0 0 384 512"><!-- Font Awesome Pro 6.0.0-alpha2 by @fontawesome - https://fontawesome.com License - https://fontawesome.com/license (Commercial License) --><path d="M374.629 150.625L233.371 9.375C227.371 3.371 219.23 0 210.746 0H64C28.652 0 0 28.652 0 64V448C0 483.344 28.652 512 64 512H320C355.348 512 384 483.344 384 448V173.254C384 164.766 380.629 156.629 374.629 150.625ZM224 22.629L361.375 160H248C234.781 160 224 149.234 224 136V22.629ZM368 448C368 474.469 346.469 496 320 496H64C37.531 496 16 474.469 16 448V64C16 37.531 37.531 16 64 16H208V136C208 158.062 225.938 176 248 176H368V448ZM112 352H80C71.164 352 64 359.164 64 368V432C64 440.836 71.164 448 80 448H112C120.838 448 128 440.836 128 432V368C128 359.164 120.838 352 112 352ZM112 432H80V368H112V432ZM208 224H176C167.164 224 160 231.164 160 240V432C160 440.836 167.164 448 176 448H208C216.838 448 224 440.836 224 432V240C224 231.164 216.838 224 208 224ZM208 432H176V240H208V432ZM272 448H304C312.838 448 320 440.836 320 432V304C320 295.164 312.838 288 304 288H272C263.164 288 256 295.164 256 304V432C256 440.836 263.164 448 272 448ZM272 304H304V432H272V304Z"/></svg>

<svg xmlns="http://www.w3.org/2000/svg" viewBox="0 0 384 512"><!--! Font Awesome Pro 6.3.0 by @fontawesome - https://fontawesome.com License - https://fontawesome.com/license (Commercial License) Copyright 2023 Fonticons, Inc. --><path d="M374.6 150.6l-141.3-141.3C227.4 3.371 219.2 0 210.7 0H64C28.65 0 0 28.65 0 64l.0065 384c0 35.34 28.65 64 64 64H320c35.35 0 64-28.66 64-64V173.3C384 164.8 380.6 156.6 374.6 150.6zM224 22.63L361.4 160H248C234.8 160 224 149.2 224 136V22.63zM368 448c0 26.47-21.53 48-48 48H64c-26.47 0-48-21.53-48-48V64c0-26.47 21.53-48 48-48h144v120c0 22.06 17.94 40 40 40h120V448zM112 352h-32C71.16 352 64 359.2 64 368v64C64 440.8 71.16 448 80 448h32C120.8 448 128 440.8 128 432v-64C128 359.2 120.8 352 112 352zM112 432h-32v-64h32V432zM208 224h-32C167.2 224 160 231.2 160 240v192C160 440.8 167.2 448 176 448h32c8.838 0 16-7.164 16-16v-192C224 231.2 216.8 224 208 224zM208 432h-32v-192h32V432zM272 448h32c8.838 0 16-7.164 16-16v-128C320 295.2 312.8 288 304 288h-32C263.2 288 256 295.2 256 304v128C256 440.8 263.2 448 272 448zM272 304h32v128h-32V304z"/></svg>
